X: 5
T: Anything For John Joe
R: reel
M: 4/4
L: 1/8
K: Dmix
DE|F2AF G2BG|F2AF EFDE|F2AF G2BG|ABcA d2 AG|
F2AF BFAF|F2AF EFDE|F2AF D3B|ABcA d2||
de|f2df e2de|f2af e2de|f2df e2dB|ABcA d2de|
f2df efde|f2af e3d|defg a3z|ABcA d2||

